flaticon/holiday/fireworks-2.svg

<svg xmlns="http://www.w3.org/2000/svg" width="32" height="32" viewBox="0 0 24 24">
    <path d="M15.601562 10.800781C16.921875 10.800781 18 9.722656 18 8.398438 18 7.078125 16.921875 6 15.601562 6 14.277344 6 13.199219 7.078125 13.199219 8.398438 13.199219 9.722656 14.277344 10.800781 15.601562 10.800781zM15.601562 6.800781C16.480469 6.800781 17.199219 7.519531 17.199219 8.398438 17.199219 9.28125 16.480469 10 15.601562 10 14.71875 10 14 9.28125 14 8.398438 14 7.519531 14.71875 6.800781 15.601562 6.800781zM7.554688 15.410156C7.625 15.277344 7.613281 15.113281 7.519531 14.992188L7.074219 14.390625 7.3125 13.683594C7.363281 13.539062 7.324219 13.378906 7.21875 13.273438 7.109375 13.164062 6.949219 13.128906 6.804688 13.175781L6.097656 13.417969 5.5 12.96875C5.375 12.878906 5.214844 12.863281 5.078125 12.933594 4.941406 13.003906 4.859375 13.144531 4.859375 13.296875L4.871094 14.042969 4.257812 14.472656C4.132812 14.5625 4.070312 14.714844 4.09375 14.863281 4.117188 15.015625 4.226562 15.136719 4.371094 15.183594L5.085938 15.40625 5.308594 16.117188C5.351562 16.265625 5.476562 16.371094 5.625 16.394531 5.648438 16.398438 5.667969 16.398438 5.691406 16.398438 5.816406 16.398438 5.941406 16.339844 6.015625 16.230469L6.449219 15.621094 7.195312 15.628906C7.351562 15.625 7.488281 15.546875 7.554688 15.410156zM6.246094 14.816406C6.121094 14.828125 5.992188 14.878906 5.914062 14.988281L5.832031 15.109375 5.785156 14.96875C5.746094 14.839844 5.648438 14.742188 5.523438 14.703125L5.382812 14.660156 5.503906 14.574219C5.609375 14.5 5.671875 14.375 5.671875 14.242188L5.671875 14.097656 5.789062 14.183594C5.894531 14.261719 6.03125 14.285156 6.15625 14.242188L6.296875 14.195312 6.246094 14.335938C6.207031 14.460938 6.226562 14.597656 6.304688 14.703125L6.394531 14.820312zM15.601562 5.199219C15.820312 5.199219 16 5.019531 16 4.800781L16 .398438C16 .179688 15.820312 0 15.601562 0 15.378906 0 15.199219.179688 15.199219.398438L15.199219 4.800781C15.199219 5.019531 15.378906 5.199219 15.601562 5.199219zM15.601562 22.601562C15.378906 22.601562 15.199219 22.777344 15.199219 23L15.199219 23.601562C15.199219 23.820312 15.378906 24 15.601562 24 15.820312 24 16 23.820312 16 23.601562L16 23C16 22.777344 15.820312 22.601562 15.601562 22.601562zM15.601562 20.289062C15.378906 20.289062 15.199219 20.46875 15.199219 20.6875L15.199219 21.84375C15.199219 22.066406 15.378906 22.246094 15.601562 22.246094 15.820312 22.246094 16 22.066406 16 21.84375L16 20.6875C16 20.46875 15.820312 20.289062 15.601562 20.289062zM15.601562 17.976562C15.378906 17.976562 15.199219 18.15625 15.199219 18.378906L15.199219 19.535156C15.199219 19.753906 15.378906 19.933594 15.601562 19.933594 15.820312 19.933594 16 19.753906 16 19.535156L16 18.378906C16 18.15625 15.820312 17.976562 15.601562 17.976562zM15.601562 13.355469C15.378906 13.355469 15.199219 13.535156 15.199219 13.753906L15.199219 14.910156C15.199219 15.132812 15.378906 15.3125 15.601562 15.3125 15.820312 15.3125 16 15.132812 16 14.910156L16 13.753906C16 13.535156 15.820312 13.355469 15.601562 13.355469zM15.601562 15.667969C15.378906 15.667969 15.199219 15.84375 15.199219 16.066406L15.199219 17.222656C15.199219 17.445312 15.378906 17.621094 15.601562 17.621094 15.820312 17.621094 16 17.445312 16 17.222656L16 16.066406C16 15.84375 15.820312 15.667969 15.601562 15.667969zM15.601562 11.601562C15.378906 11.601562 15.199219 11.777344 15.199219 12L15.199219 12.601562C15.199219 12.820312 15.378906 13 15.601562 13 15.820312 13 16 12.820312 16 12.601562L16 12C16 11.777344 15.820312 11.601562 15.601562 11.601562zM23.601562 8L19.199219 8C18.980469 8 18.800781 8.179688 18.800781 8.398438 18.800781 8.621094 18.980469 8.800781 19.199219 8.800781L23.601562 8.800781C23.820312 8.800781 24 8.621094 24 8.398438 24 8.179688 23.820312 8 23.601562 8zM7.601562 8.800781L12 8.800781C12.222656 8.800781 12.398438 8.621094 12.398438 8.398438 12.398438 8.179688 12.222656 8 12 8L7.601562 8C7.378906 8 7.199219 8.179688 7.199219 8.398438 7.199219 8.621094 7.378906 8.800781 7.601562 8.800781zM17.863281 6.136719C17.941406 6.214844 18.042969 6.253906 18.144531 6.253906 18.246094 6.253906 18.351562 6.214844 18.429688 6.136719L21.539062 3.027344C21.695312 2.871094 21.695312 2.617188 21.539062 2.460938 21.382812 2.304688 21.128906 2.304688 20.972656 2.460938L17.863281 5.570312C17.707031 5.726562 17.707031 5.980469 17.863281 6.136719zM10.398438 14C10.503906 14 10.605469 13.960938 10.683594 13.882812L13.335938 11.226562C13.492188 11.070312 13.492188 10.820312 13.335938 10.664062 13.179688 10.507812 12.929688 10.507812 12.773438 10.664062L10.117188 13.316406C9.960938 13.472656 9.960938 13.726562 10.117188 13.882812 10.195312 13.960938 10.296875 14 10.398438 14zM18.429688 10.664062C18.273438 10.507812 18.019531 10.507812 17.863281 10.664062 17.707031 10.820312 17.707031 11.070312 17.863281 11.226562L20.972656 14.339844C21.050781 14.417969 21.15625 14.457031 21.257812 14.457031 21.359375 14.457031 21.460938 14.417969 21.539062 14.339844 21.695312 14.183594 21.695312 13.929688 21.539062 13.773438zM12.773438 6.136719C12.847656 6.214844 12.953125 6.253906 13.054688 6.253906 13.15625 6.253906 13.257812 6.214844 13.335938 6.136719 13.492188 5.980469 13.492188 5.726562 13.335938 5.570312L10.226562 2.460938C10.070312 2.304688 9.816406 2.304688 9.660156 2.460938 9.503906 2.617188 9.503906 2.871094 9.660156 3.027344zM16.867188 5.40625C16.921875 5.429688 16.972656 5.4375 17.027344 5.4375 17.179688 5.4375 17.328125 5.347656 17.394531 5.195312L19.136719 1.15625C19.226562.953125 19.132812.71875 18.929688.632812 18.726562.542969 18.492188.636719 18.40625.839844L16.660156 4.878906C16.574219 5.082031 16.664062 5.316406 16.867188 5.40625zM14.332031 11.28125C14.128906 11.195312 13.894531 11.285156 13.804688 11.488281L12.0625 15.527344C11.972656 15.730469 12.066406 15.96875 12.269531 16.054688 12.320312 16.078125 12.375 16.085938 12.429688 16.085938 12.582031 16.085938 12.730469 15.996094 12.796875 15.84375L14.539062 11.804688C14.628906 11.605469 14.535156 11.367188 14.332031 11.28125zM23.101562 11.148438L19.0625 9.402344C18.859375 9.316406 18.625 9.410156 18.539062 9.613281 18.449219 9.8125 18.542969 10.050781 18.746094 10.136719L22.785156 11.882812C22.835938 11.902344 22.890625 11.914062 22.945312 11.914062 23.097656 11.914062 23.246094 11.824219 23.3125 11.671875 23.398438 11.472656 23.304688 11.234375 23.101562 11.148438zM8.097656 5.539062L12.136719 7.28125C12.1875 7.304688 12.242188 7.316406 12.292969 7.316406 12.449219 7.316406 12.597656 7.226562 12.660156 7.074219 12.75 6.871094 12.65625 6.636719 12.453125 6.546875L8.414062 4.804688C8.210938 4.71875 7.976562 4.808594 7.886719 5.011719 7.800781 5.214844 7.894531 5.453125 8.097656 5.539062zM18.617188 7.277344C18.675781 7.441406 18.828125 7.542969 18.996094 7.542969 19.039062 7.542969 19.082031 7.535156 19.128906 7.519531L23.277344 6.054688C23.484375 5.980469 23.59375 5.753906 23.519531 5.546875 23.445312 5.335938 23.21875 5.230469 23.011719 5.300781L18.859375 6.765625C18.652344 6.839844 18.542969 7.070312 18.617188 7.277344zM9.601562 10.800781C9.640625 10.800781 9.683594 10.792969 9.726562 10.78125L12.332031 9.921875C12.539062 9.851562 12.65625 9.625 12.585938 9.417969 12.515625 9.207031 12.289062 9.09375 12.082031 9.160156L9.476562 10.019531C9.265625 10.089844 9.152344 10.316406 9.21875 10.523438 9.273438 10.691406 9.433594 10.800781 9.601562 10.800781zM17.175781 11.605469C17.101562 11.394531 16.875 11.289062 16.664062 11.359375 16.457031 11.433594 16.347656 11.664062 16.421875 11.871094L17.886719 16.019531C17.945312 16.183594 18.097656 16.285156 18.265625 16.285156 18.308594 16.285156 18.355469 16.277344 18.398438 16.261719 18.605469 16.191406 18.714844 15.960938 18.640625 15.753906zM14.023438 5.082031C14.082031 5.246094 14.238281 5.347656 14.402344 5.347656 14.445312 5.347656 14.492188 5.339844 14.535156 5.324219 14.742188 5.253906 14.851562 5.023438 14.777344 4.816406L13.3125.667969C13.238281.457031 13.011719.351562 12.800781.421875 12.59375.496094 12.484375.726562 12.558594.933594zM6.398438 8.800781C6.398438 8.578125 6.222656 8.398438 6 8.398438 5.777344 8.398438 5.601562 8.578125 5.601562 8.800781L5.601562 9.601562C5.601562 9.820312 5.777344 10 6 10 6.222656 10 6.398438 9.820312 6.398438 9.601562zM6 12C6.222656 12 6.398438 11.820312 6.398438 11.601562L6.398438 10.800781C6.398438 10.578125 6.222656 10.398438 6 10.398438 5.777344 10.398438 5.601562 10.578125 5.601562 10.800781L5.601562 11.601562C5.601562 11.820312 5.777344 12 6 12zM6 16.820312C5.777344 16.820312 5.601562 17 5.601562 17.21875L5.601562 23.601562C5.601562 23.820312 5.777344 24 6 24 6.222656 24 6.398438 23.820312 6.398438 23.601562L6.398438 17.21875C6.398438 17 6.222656 16.820312 6 16.820312zM10 14.800781C10 14.578125 9.820312 14.398438 9.601562 14.398438L8.800781 14.398438C8.578125 14.398438 8.398438 14.578125 8.398438 14.800781 8.398438 15.019531 8.578125 15.199219 8.800781 15.199219L9.601562 15.199219C9.820312 15.199219 10 15.019531 10 14.800781zM2.398438 14.800781L3.199219 14.800781C3.421875 14.800781 3.601562 14.621094 3.601562 14.398438 3.601562 14.179688 3.421875 14 3.199219 14L2.398438 14C2.179688 14 2 14.179688 2 14.398438 2 14.621094 2.179688 14.800781 2.398438 14.800781zM1.601562 14.398438C1.601562 14.179688 1.421875 14 1.199219 14L.398438 14C.179688 14 0 14.179688 0 14.398438 0 14.621094.179688 14.800781.398438 14.800781L1.199219 14.800781C1.421875 14.800781 1.601562 14.621094 1.601562 14.398438zM9.605469 12.398438C9.824219 12.398438 10.003906 12.222656 10.003906 12 10.003906 11.777344 9.824219 11.601562 9.605469 11.601562L9.601562 11.601562C9.378906 11.601562 9.203125 11.777344 9.203125 12 9.203125 12.222656 9.382812 12.398438 9.605469 12.398438zM8 13.601562C8.082031 13.601562 8.167969 13.574219 8.238281 13.519531L8.878906 13.039062C9.058594 12.90625 9.09375 12.65625 8.960938 12.480469 8.828125 12.304688 8.578125 12.269531 8.398438 12.402344L7.761719 12.878906C7.582031 13.011719 7.546875 13.261719 7.679688 13.441406 7.757812 13.542969 7.878906 13.601562 8 13.601562zM2.28125 17.550781L1.71875 18.117188C1.5625 18.273438 1.5625 18.527344 1.71875 18.683594 1.796875 18.761719 1.898438 18.800781 2 18.800781 2.101562 18.800781 2.203125 18.761719 2.28125 18.683594L2.847656 18.117188C3.003906 17.960938 3.003906 17.707031 2.847656 17.550781 2.691406 17.394531 2.4375 17.394531 2.28125 17.550781zM3.695312 17.269531L4.261719 16.703125C4.417969 16.546875 4.417969 16.292969 4.261719 16.136719 4.105469 15.980469 3.851562 15.980469 3.695312 16.136719L3.132812 16.703125C2.976562 16.859375 2.976562 17.113281 3.132812 17.269531 3.210938 17.347656 3.3125 17.386719 3.414062 17.386719 3.515625 17.386719 3.621094 17.347656 3.695312 17.269531zM2.820312 10.757812L2.308594 10.144531C2.164062 9.972656 1.914062 9.953125 1.742188 10.09375 1.574219 10.234375 1.550781 10.488281 1.691406 10.65625L2.203125 11.269531C2.285156 11.367188 2.398438 11.414062 2.511719 11.414062 2.601562 11.414062 2.695312 11.382812 2.769531 11.320312 2.9375 11.179688 2.960938 10.929688 2.820312 10.757812zM4.101562 12.296875L3.585938 11.679688C3.445312 11.511719 3.195312 11.488281 3.023438 11.628906 2.855469 11.769531 2.832031 12.023438 2.972656 12.191406L3.484375 12.808594C3.566406 12.902344 3.679688 12.949219 3.792969 12.949219 3.882812 12.949219 3.972656 12.921875 4.050781 12.859375 4.21875 12.71875 4.242188 12.464844 4.101562 12.296875zM7.199219 11.105469L6.84375 11.820312C6.742188 12.019531 6.824219 12.257812 7.019531 12.359375 7.078125 12.386719 7.140625 12.398438 7.199219 12.398438 7.347656 12.398438 7.488281 12.320312 7.558594 12.179688L7.914062 11.464844C8.015625 11.265625 7.933594 11.023438 7.738281 10.925781 7.539062 10.828125 7.296875 10.90625 7.199219 11.105469zM7.914062 10.570312C7.972656 10.597656 8.035156 10.609375 8.09375 10.609375 8.242188 10.609375 8.382812 10.53125 8.453125 10.390625L8.757812 9.777344C8.855469 9.582031 8.777344 9.339844 8.578125 9.242188 8.378906 9.144531 8.140625 9.222656 8.042969 9.421875L7.738281 10.03125C7.636719 10.230469 7.71875 10.46875 7.914062 10.570312zM4.980469 16.84375C4.78125 16.742188 4.539062 16.824219 4.441406 17.019531L4.136719 17.632812C4.039062 17.828125 4.117188 18.070312 4.316406 18.167969 4.371094 18.195312 4.433594 18.210938 4.492188 18.210938 4.640625 18.210938 4.78125 18.128906 4.851562 17.988281L5.15625 17.378906C5.257812 17.179688 5.175781 16.941406 4.980469 16.84375zM4.136719 18.527344C3.9375 18.429688 3.699219 18.507812 3.601562 18.707031L3.242188 19.421875C3.144531 19.617188 3.222656 19.859375 3.421875 19.957031 3.476562 19.988281 3.539062 20 3.597656 20 3.746094 20 3.886719 19.917969 3.957031 19.777344L4.316406 19.0625C4.414062 18.867188 4.335938 18.625 4.136719 18.527344zM9.292969 15.925781L8.546875 15.628906C8.34375 15.546875 8.109375 15.644531 8.027344 15.851562 7.945312 16.058594 8.046875 16.289062 8.25 16.371094L8.996094 16.667969C9.042969 16.6875 9.09375 16.695312 9.144531 16.695312 9.300781 16.695312 9.453125 16.601562 9.515625 16.445312 9.597656 16.242188 9.496094 16.007812 9.292969 15.925781zM10.546875 16.429688L10.40625 16.371094C10.199219 16.289062 9.96875 16.390625 9.886719 16.59375 9.804688 16.800781 9.902344 17.03125 10.109375 17.113281L10.253906 17.171875C10.300781 17.191406 10.351562 17.199219 10.398438 17.199219 10.558594 17.199219 10.710938 17.105469 10.773438 16.949219 10.851562 16.742188 10.753906 16.511719 10.546875 16.429688zM2.269531 13.03125C2.183594 13.234375 2.277344 13.46875 2.480469 13.554688L3.214844 13.871094C3.265625 13.894531 3.320312 13.902344 3.375 13.902344 3.527344 13.902344 3.675781 13.8125 3.742188 13.660156 3.828125 13.457031 3.734375 13.222656 3.53125 13.136719L2.796875 12.820312C2.59375 12.734375 2.359375 12.828125 2.269531 13.03125zM.640625 12.769531L1.378906 13.082031C1.429688 13.105469 1.480469 13.113281 1.535156 13.113281 1.691406 13.113281 1.839844 13.023438 1.902344 12.871094 1.988281 12.671875 1.894531 12.433594 1.691406 12.347656L.957031 12.03125C.753906 11.945312.519531 12.039062.433594 12.242188.34375 12.445312.4375 12.679688.640625 12.769531zM2.722656 16.25C2.757812 16.25 2.796875 16.246094 2.832031 16.234375L3.601562 16.015625C3.8125 15.953125 3.9375 15.734375 3.875 15.519531 3.816406 15.308594 3.59375 15.1875 3.382812 15.246094L2.613281 15.464844C2.402344 15.527344 2.277344 15.746094 2.339844 15.960938 2.386719 16.136719 2.546875 16.25 2.722656 16.25zM1.953125 16.070312C1.894531 15.859375 1.671875 15.738281 1.460938 15.796875L.691406 16.015625C.476562 16.074219.355469 16.296875.414062 16.511719.464844 16.6875.625 16.800781.800781 16.800781.835938 16.800781.875 16.792969.910156 16.785156L1.679688 16.566406C1.890625 16.503906 2.015625 16.28125 1.953125 16.070312zM7.976562 17.242188L7.53125 16.578125C7.410156 16.394531 7.160156 16.34375 6.976562 16.46875 6.792969 16.589844 6.746094 16.839844 6.867188 17.023438L7.3125 17.6875C7.386719 17.804688 7.515625 17.867188 7.644531 17.867188 7.71875 17.867188 7.796875 17.84375 7.867188 17.796875 8.050781 17.675781 8.097656 17.425781 7.976562 17.242188zM8.640625 18.242188C8.519531 18.058594 8.269531 18.007812 8.085938 18.132812 7.902344 18.253906 7.855469 18.503906 7.976562 18.6875L8.421875 19.351562C8.496094 19.46875 8.625 19.53125 8.753906 19.53125 8.828125 19.53125 8.90625 19.507812 8.976562 19.460938 9.160156 19.339844 9.207031 19.089844 9.085938 18.90625zM4.769531 12.292969C4.804688 12.292969 4.84375 12.285156 4.878906 12.277344 5.089844 12.214844 5.214844 11.996094 5.152344 11.78125L4.933594 11.011719C4.875 10.800781 4.652344 10.679688 4.441406 10.738281 4.226562 10.796875 4.105469 11.019531 4.164062 11.230469L4.382812 12C4.433594 12.175781 4.59375 12.292969 4.769531 12.292969zM3.617188 9.308594L3.835938 10.078125C3.886719 10.253906 4.046875 10.371094 4.21875 10.371094 4.257812 10.371094 4.292969 10.363281 4.328125 10.355469 4.542969 10.292969 4.664062 10.070312 4.605469 9.859375L4.386719 9.089844C4.324219 8.878906 4.101562 8.757812 3.890625 8.816406 3.675781 8.875 3.554688 9.097656 3.617188 9.308594zM2.199219 6C2.972656 6 3.601562 5.371094 3.601562 4.601562 3.601562 3.828125 2.972656 3.199219 2.199219 3.199219 1.429688 3.199219.800781 3.828125.800781 4.601562.800781 5.371094 1.429688 6 2.199219 6zM2.199219 4C2.53125 4 2.800781 4.269531 2.800781 4.601562 2.800781 4.929688 2.53125 5.199219 2.199219 5.199219 1.871094 5.199219 1.601562 4.929688 1.601562 4.601562 1.601562 4.269531 1.871094 4 2.199219 4zM5.800781 3.601562C6.570312 3.601562 7.199219 2.972656 7.199219 2.199219 7.199219 1.429688 6.570312.800781 5.800781.800781 5.027344.800781 4.398438 1.429688 4.398438 2.199219 4.398438 2.972656 5.027344 3.601562 5.800781 3.601562zM5.800781 1.601562C6.128906 1.601562 6.398438 1.871094 6.398438 2.199219 6.398438 2.53125 6.128906 2.800781 5.800781 2.800781 5.46875 2.800781 5.199219 2.53125 5.199219 2.199219 5.199219 1.871094 5.46875 1.601562 5.800781 1.601562zM6 5C6 5.332031 5.730469 5.601562 5.398438 5.601562 5.070312 5.601562 4.800781 5.332031 4.800781 5 4.800781 4.667969 5.070312 4.398438 5.398438 4.398438 5.730469 4.398438 6 4.667969 6 5zM4 7C4 7.332031 3.730469 7.601562 3.398438 7.601562 3.070312 7.601562 2.800781 7.332031 2.800781 7 2.800781 6.667969 3.070312 6.398438 3.398438 6.398438 3.730469 6.398438 4 6.667969 4 7zM4 7"/>
</svg>

<svg xmlns="http://www.w3.org/2000/svg" width="32" height="32" viewBox="0 0 24 24">
    <path d="M15.602 10.8A2.405 2.405 0 0 0 18 8.399 2.404 2.404 0 0 0 15.602 6a2.405 2.405 0 0 0-2.403 2.398 2.406 2.406 0 0 0 2.403 2.403zm0-4c.878 0 1.597.72 1.597 1.598 0 .883-.719 1.602-1.597 1.602A1.604 1.604 0 0 1 14 8.398c0-.878.719-1.597 1.602-1.597zm0 0M7.555 15.41a.387.387 0 0 0-.035-.418l-.446-.601.239-.707a.397.397 0 0 0-.094-.41.407.407 0 0 0-.414-.098l-.707.242-.598-.45a.402.402 0 0 0-.64.329l.011.746-.613.43a.403.403 0 0 0 .113.71l.715.223.223.711a.392.392 0 0 0 .316.278c.023.003.043.003.066.003.125 0 .25-.058.325-.168l.433-.609.746.008a.398.398 0 0 0 .36-.219zm-1.309-.594a.45.45 0 0 0-.332.172l-.082.121-.047-.14a.396.396 0 0 0-.262-.266l-.14-.043.12-.086a.405.405 0 0 0 .169-.332v-.144l.117.086a.399.399 0 0 0 .367.058l.14-.047-.05.14a.41.41 0 0 0 .059.368l.09.117zm0 0M15.602 5.2A.4.4 0 0 0 16 4.8V.399a.4.4 0 0 0-.8 0v4.403c0 .219.179.398.402.398zm0 0M15.602 22.602a.398.398 0 0 0-.403.398v.602a.401.401 0 0 0 .801 0V23a.398.398 0 0 0-.398-.398zm0 0M15.602 20.29a.401.401 0 0 0-.403.398v1.156a.401.401 0 0 0 .8 0l.001-1.156a.4.4 0 0 0-.398-.399zm0 0M15.602 17.977a.402.402 0 0 0-.403.402v1.156a.401.401 0 0 0 .801 0V18.38a.401.401 0 0 0-.398-.402zm0 0M15.602 13.355a.401.401 0 0 0-.403.399v1.156a.401.401 0 0 0 .8 0l.001-1.156a.4.4 0 0 0-.398-.399zm0 0M15.602 15.668a.398.398 0 0 0-.403.398v1.157c0 .222.18.398.403.398a.398.398 0 0 0 .398-.398v-1.157a.398.398 0 0 0-.398-.398zm0 0M15.602 11.602a.398.398 0 0 0-.403.398v.602a.401.401 0 0 0 .801 0V12a.398.398 0 0 0-.398-.398zm0 0M23.602 8h-4.403a.4.4 0 0 0 0 .8h4.403a.401.401 0 0 0 0-.8zm0 0M7.602 8.8H12c.223 0 .398-.179.398-.402A.398.398 0 0 0 12 8H7.602a.401.401 0 1 0 0 .8zm0 0M17.863 6.137a.405.405 0 0 0 .566 0l3.11-3.11a.4.4 0 0 0-.566-.566l-3.11 3.11a.4.4 0 0 0 0 .566zm0 0M10.398 14c.106 0 .207-.04.286-.117l2.652-2.656a.396.396 0 0 0 0-.563.396.396 0 0 0-.563 0l-2.656 2.652a.4.4 0 0 0 .281.684zm0 0M18.43 10.664a.4.4 0 0 0-.567 0 .396.396 0 0 0 0 .563l3.11 3.113a.405.405 0 0 0 .285.117.4.4 0 0 0 .281-.684zm0 0M12.773 6.137a.396.396 0 0 0 .563 0 .4.4 0 0 0 0-.567l-3.11-3.11a.4.4 0 0 0-.566.567zm0 0M16.867 5.406a.402.402 0 0 0 .527-.21l1.743-4.04a.394.394 0 0 0-.207-.523.394.394 0 0 0-.524.207L16.66 4.879a.403.403 0 0 0 .207.527zm0 0M14.332 11.281a.403.403 0 0 0-.527.207l-1.742 4.04a.398.398 0 0 0 .367.558c.152 0 .3-.09.367-.242l1.742-4.04a.395.395 0 0 0-.207-.523zm0 0M23.102 11.148l-4.04-1.746a.399.399 0 0 0-.523.211c-.09.2.004.438.207.524l4.04 1.746a.402.402 0 0 0 .527-.21.4.4 0 0 0-.211-.525zm0 0M8.098 5.54l4.039 1.741a.394.394 0 0 0 .523-.207.4.4 0 0 0-.207-.527L8.414 4.805a.403.403 0 0 0-.527.207.403.403 0 0 0 .21.527zm0 0M18.617 7.277a.399.399 0 0 0 .512.243l4.148-1.465a.4.4 0 1 0-.266-.754L18.86 6.766a.402.402 0 0 0-.242.511zm0 0M9.602 10.8c.039 0 .082-.007.125-.019l2.605-.86a.401.401 0 0 0-.25-.76l-2.605.859a.403.403 0 0 0-.258.503.406.406 0 0 0 .383.278zm0 0M17.176 11.605a.402.402 0 0 0-.512-.246.402.402 0 0 0-.242.512l1.465 4.149a.399.399 0 0 0 .511.242c.207-.07.317-.301.243-.508zm0 0M14.023 5.082a.403.403 0 0 0 .512.242c.207-.07.317-.3.242-.508L13.313.668A.402.402 0 0 0 12.8.422a.402.402 0 0 0-.242.512zm0 0M6.398 8.8a.398.398 0 1 0-.796 0v.802a.398.398 0 1 0 .796 0zm0 0M6 12c.223 0 .398-.18.398-.398V10.8a.398.398 0 1 0-.796 0v.8c0 .22.175.399.398.399zm0 0M6 16.82a.398.398 0 0 0-.398.399v6.383a.398.398 0 1 0 .796 0v-6.383A.398.398 0 0 0 6 16.82zm0 0M10 14.8a.401.401 0 0 0-.398-.402H8.8a.401.401 0 0 0 0 .8l.8.001a.4.4 0 0 0 .399-.398zm0 0M2.398 14.8H3.2a.401.401 0 0 0 0-.8h-.8a.4.4 0 0 0 0 .8zm0 0M1.602 14.398A.401.401 0 0 0 1.199 14H.4a.4.4 0 0 0 0 .8h.8c.223 0 .403-.179.403-.402zm0 0M9.605 12.398a.398.398 0 1 0 0-.796h-.003a.398.398 0 0 0 .004.797zm0 0M8 13.602a.392.392 0 0 0 .238-.082l.64-.48a.396.396 0 0 0 .083-.56.403.403 0 0 0-.563-.078l-.636.477a.4.4 0 0 0 .238.723zm0 0M2.281 17.55l-.562.567a.4.4 0 0 0 .281.684c.102 0 .203-.04.281-.117l.567-.567a.4.4 0 0 0-.567-.566zm0 0M3.695 17.27l.567-.567a.4.4 0 0 0-.567-.566l-.562.566a.4.4 0 0 0 .281.684.39.39 0 0 0 .281-.117zm0 0M2.82 10.758l-.511-.613a.401.401 0 0 0-.617.512l.511.613a.4.4 0 0 0 .567.05.401.401 0 0 0 .05-.562zm0 0M4.102 12.297l-.516-.617a.401.401 0 0 0-.563-.051.401.401 0 0 0-.05.562l.511.618a.408.408 0 0 0 .567.05.401.401 0 0 0 .05-.562zm0 0M7.2 11.105l-.356.715c-.102.2-.02.438.176.54.058.027.12.038.18.038.148 0 .288-.078.359-.218l.355-.715a.4.4 0 1 0-.715-.36zm0 0M7.914 10.57c.059.028.121.04.18.04.148 0 .289-.079.36-.22l.304-.613a.398.398 0 1 0-.715-.355l-.305.61c-.101.198-.02.437.176.538zm0 0M4.98 16.844a.4.4 0 0 0-.539.176l-.304.613a.399.399 0 1 0 .715.355l.304-.61a.396.396 0 0 0-.176-.534zm0 0M4.137 18.527a.397.397 0 0 0-.535.18l-.36.715a.398.398 0 0 0 .18.535.4.4 0 0 0 .535-.18l.36-.715a.399.399 0 0 0-.18-.535zm0 0M9.293 15.926l-.746-.297a.4.4 0 0 0-.297.742l.746.297a.4.4 0 0 0 .52-.223.402.402 0 0 0-.223-.52zm0 0M10.547 16.43l-.14-.059a.4.4 0 0 0-.298.742l.145.059a.402.402 0 0 0 .52-.223.402.402 0 0 0-.227-.52zm0 0M2.27 13.031a.399.399 0 0 0 .21.524l.735.316c.05.024.105.031.16.031a.399.399 0 0 0 .156-.766l-.734-.316a.405.405 0 0 0-.527.211zm0 0M.64 12.77l.739.312a.36.36 0 0 0 .156.031c.156 0 .305-.09.367-.242a.4.4 0 0 0-.21-.523l-.735-.317a.399.399 0 0 0-.523.211.4.4 0 0 0 .207.528zm0 0M2.723 16.25a.353.353 0 0 0 .109-.016l.77-.218a.4.4 0 0 0-.22-.77l-.769.219a.4.4 0 0 0-.273.496c.047.176.207.289.383.289zm0 0M1.953 16.07a.4.4 0 0 0-.492-.273l-.77.219a.401.401 0 0 0 .11.785.527.527 0 0 0 .11-.016l.769-.219a.402.402 0 0 0 .273-.496zm0 0M7.977 17.242l-.446-.664a.397.397 0 0 0-.554-.11.4.4 0 0 0-.11.555l.446.665a.392.392 0 0 0 .554.109.4.4 0 0 0 .11-.555zm0 0M8.64 18.242a.397.397 0 0 0-.554-.11.4.4 0 0 0-.11.555l.446.665a.392.392 0 0 0 .555.109.4.4 0 0 0 .109-.555zm0 0M4.77 12.293a.4.4 0 0 0 .383-.512l-.22-.77a.4.4 0 0 0-.769.22l.219.769c.05.176.21.293.387.293zm0 0M3.617 9.309l.219.77c.05.175.21.292.383.292.039 0 .074-.008.11-.016a.404.404 0 0 0 .276-.496l-.218-.77a.405.405 0 0 0-.496-.273.393.393 0 0 0-.274.493zm0 0M2.2 6c.773 0 1.402-.629 1.402-1.398 0-.774-.63-1.403-1.403-1.403-.77 0-1.398.63-1.398 1.403C.8 5.372 1.43 6 2.199 6zm0-2a.601.601 0 0 1 0 1.2.6.6 0 0 1 0-1.2zm0 0M5.8 3.602c.77 0 1.4-.63 1.4-1.403 0-.77-.63-1.398-1.4-1.398-.773 0-1.402.629-1.402 1.398 0 .774.63 1.403 1.403 1.403zm0-2a.6.6 0 1 1-.004 1.2.6.6 0 0 1 .005-1.2zm0 0M6 5a.601.601 0 1 1-.602-.602c.332 0 .602.27.602.602zm0 0M4 7a.601.601 0 1 1-.602-.602c.332 0 .602.27.602.602zm0 0"/>
</svg>
